X:1
T:He’s a Friend of Mine
T:Daniel Brink Towner
T:He’s a Friend of Mine
T:Public Domain
T:Public Domain
C:Daniel Brink Towner
Z:Public Domain
%%score ( 1 2 ) ( 3 4 )
L:1/8
M:3/4
K:C
V:1 treble 
V:2 treble 
V:3 bass 
V:4 bass 
V:1
 [EG][EG] [EA] | [CE]3 [EG] [EG][EA] | [DF]4 [CE]2 | [B,D]3 [CE] [DF][EG] | [CE]3 [EG] [EG][EA] | %5
w: 1.~Why should I|charge my soul with|care? The|wealth of ev- ery|mine Be- longs to|
w: 2.~The sil- ver|moon, the gold- en|sun, The|count- less stars that|shine, Are His a-|
w: 3.~He dai- ly|spreads a glo- rious|feast, And|at His ta- ble|dine The whole cre-|
w: 4.~And when he|comes in bright ar-|ray, And|leads the con- qu’ring|line, It will be|
 [CE]3 [EG] [FA][FB] | [Ec]4 [Gc]2 | [GB]3 [GB] [^Fc][Fc] | [Fd]4 ||"^Refrain" [FG]2 | %10
w: Christ, God’s Son and|Heir, And|He’s a Friend of|mine.||
w: lone, yes, ev- ery|one, And|He’s a Friend of|mine.||
w: a- tion, man and|beast, And|He’s a Friend of|mine.||
w: glo- ry then to|say, That|He’s a Friend of|mine.||
 [Ge]3 [Ec] [CE][FA] | [EG]3 [FG] [FG][FA] | [DF]3 [DF] [DF][DG] | [CE]3 [CE] [CA][DB] | %14
w: ||||
w: ||||
w: ||||
w: ||||
 [Ec]3 [EA] [Ec][Ad] | [^Ge]4 [Ge]2 | [Ad]3 [FA] [^FB][Fc] | [Fd]4 [FG]2 | [Ge]3 [Ec] [CE][FA] | %19
w: |||||
w: |||||
w: |||||
w: |||||
 (E2 F2) [Fd]2 | [Ec]6- | [Ec]3 |] %22
w: |||
w: |||
w: |||
w: |||
V:2
 x3 | x6 | x6 | x6 | x6 | x6 | x6 | x6 | x4 || x2 | x6 | x6 | x6 | x6 | x6 | x6 | x6 | x6 | x6 | %19
 G4 x2 | x6 | x3 |] %22
V:3
 [C,C][C,C] [C,A,] | [C,G,]3 [C,C] [C,C][C,C] | [G,B,]4 [G,C]2 | G,3 G, G,G, | %4
w: ~ ~ ~|~ ~ ~ ~|~ ~|~ ~ ~ ~|
 [C,G,]3 [C,C] [C,C][C,A,] | [C,G,]3 [C,C] [C,C][C,G,] | [C,G,]4 [E,C]2 | %7
w: ~ ~ ~ ~|~ ~ ~ ~|~ ~|
 [D,D]3 [D,D] [D,D][D,A,] | [G,B,]4 || [G,B,]2 | [C,C]3 [C,G,] [C,G,][C,C] | %11
w: ~ Yes, He’s a|Friend|of|mine, And He with|
 [C,C]3 [G,D] [G,D][G,D] | [G,B,]3 [G,B,] [G,B,][G,B,] | [C,C]3 [A,C] [A,C][A,B,] | %14
w: me doth all things|share; Since all is|Christ’s, and Christ is|
 A,3 [A,C] A,[F,A,] | [E,B,]4 [E,B,]2 | [F,A,]3 [F,D] [D,D][D,A,] | [G,B,]4 [G,B,]2 | %18
w: mine, Why should I|care? For|Je- sus is a|Friend of|
 [C,C]3 [C,G,] [C,G,][C,C] | (C,E, [G,B,]2) G,2 | [C,G,]6- | [C,G,]3 |] %22
w: mine. * * *||||
V:4
 x3 | x6 | x6 | G,3 G, G,G, | x6 | x6 | x6 | x6 | x4 || x2 | x6 | x6 | x6 | x6 | A,3 A, x2 | x6 | %16
w: |||~ ~ ~ ~|||||||||||have a||
 x6 | x6 | x6 | C2 x G,2 x | x6 | x3 |] %22
w: ||||||

